dhis-2/dhis-support/dhis-support-system/src/main/resources/SVGs/fetus_negative.svg

<svg width="48" height="48" viewBox="0 0 48 48" fill="none" xmlns="http://www.w3.org/2000/svg">
<path fill-rule="evenodd" clip-rule="evenodd" d="M0 0V47.9994H47.9994V0H0ZM23.8787 4.00975C34.9076 4.00835 43.8484 12.9488 43.8475 23.9785C43.8484 35.0074 34.9076 43.9482 23.8787 43.9482C12.8498 43.9482 3.90695 35.0074 3.90795 23.9785C3.90675 12.9496 12.8498 4.00875 23.8787 4.00975ZM23.8787 6.74992C14.3638 6.74992 6.64992 14.4628 6.64992 23.9787C6.65032 33.4936 14.3638 41.2075 23.8787 41.2085C33.3936 41.2075 41.1065 33.4936 41.1065 23.9787C41.1065 14.4638 33.3936 6.75092 23.8787 6.74992ZM22.3547 7.7323C22.7887 7.7294 23.2037 8.1219 22.8997 8.62489C22.4527 9.41498 21.7597 10.0549 21.5037 11.0759C21.2027 12.2488 22.9627 12.1178 24.7437 12.4378C30.4216 13.4688 27.7727 16.4008 26.5387 16.4428C23.9407 16.8638 20.6587 16.1108 20.2007 21.5797C20.2247 23.0087 20.7787 24.3027 21.0977 25.6557C21.2637 26.9427 21.0787 28.2156 20.3317 29.4606C20.7027 29.4126 21.0397 29.3886 21.5117 29.2706C22.9487 28.8106 23.5167 28.4266 23.0957 27.6167C21.5897 25.8537 22.6887 23.7627 23.4997 22.8687C24.9237 21.3957 25.6587 20.5437 27.0567 20.0877C28.7126 19.6008 30.1386 21.0037 29.2966 22.1987C27.6747 24.1217 25.5237 25.0527 26.8517 26.5227C27.3967 26.8857 27.5887 27.0087 28.0016 27.4447C29.0576 29.0576 29.1236 29.5756 29.6086 30.9996C29.6186 32.0266 30.1586 33.1726 27.2417 34.7866C24.1987 35.7376 21.9407 37.4825 18.0348 37.5735C14.1718 37.2365 11.2259 34.3116 12.1018 31.6386L13.1718 28.5306C13.9608 26.3947 13.1378 25.7257 11.6169 25.6947L9.42368 25.6367C7.6329 25.5977 6.96691 22.5107 9.04869 21.7297C11.0239 21.0737 13.2108 21.5387 15.6778 22.0507C16.9078 22.2687 18.1198 23.1137 18.6148 24.8927C19.1188 26.7247 18.8618 27.7957 18.8008 29.0616C18.8668 29.3586 19.1318 29.4866 19.4898 29.5286C20.1937 28.0616 20.5427 26.7077 20.3317 25.5327C19.6928 23.7397 19.3258 22.3277 19.3948 21.5327C19.9278 16.1008 22.6427 16.0348 25.2827 15.7868C28.4646 15.4998 27.3497 13.5718 24.2537 13.4588C23.1807 13.4628 19.7428 13.2928 20.1677 11.2889C20.5017 9.89848 21.2627 9.20858 21.7047 8.2265C21.8267 7.8779 22.0947 7.7341 22.3547 7.7323ZM34.8336 21.6111C36.0925 21.6101 37.3485 22.0851 38.3085 23.0451C40.2305 24.9641 40.2355 28.084 38.3155 30.006C36.3965 31.93 33.2776 31.935 31.3566 30.016C29.4346 28.096 29.4376 24.9781 31.3566 23.0571C32.3166 22.0951 33.5746 21.6131 34.8336 21.6131V21.6111Z" fill="#333333"/>
</svg>

<?xml version="1.0" encoding="UTF-8" standalone="no"?>
<!-- Created with Inkscape (http://www.inkscape.org/) -->
<svg id="svg8" xmlns:rdf="http://www.w3.org/1999/02/22-rdf-syntax-ns#" xmlns="http://www.w3.org/2000/svg" height="48" viewBox="0 0 12.7 12.7" width="48" version="1.1" xmlns:cc="http://creativecommons.org/ns#" xmlns:dc="http://purl.org/dc/elements/1.1/">
 <title id="title4753">UIO-icon</title>
 <metadata id="metadata5">
  <rdf:RDF>
   <cc:Work rdf:about="">
    <dc:format>image/svg+xml</dc:format>
    <dc:type rdf:resource="http://purl.org/dc/dcmitype/StillImage"/>
    <dc:title>UIO-icon</dc:title>
    <dc:creator>
     <cc:Agent>
      <dc:title>Joaquín Urbano</dc:title>
     </cc:Agent>
    </dc:creator>
    <dc:rights>
     <cc:Agent>
      <dc:title>GPL</dc:title>
     </cc:Agent>
    </dc:rights>
   </cc:Work>
  </rdf:RDF>
 </metadata>
 <path id="rect821" d="m0 0v48h48v-48h-48zm23.879 4.0098c11.029-0.0014 19.97 8.9392 19.969 19.969 0.001 11.029-8.94 19.97-19.969 19.97s-19.972-8.941-19.971-19.97c-0.0012-11.029 8.942-19.97 19.971-19.969zm0 2.7402c-9.515 0-17.229 7.713-17.229 17.229 0.0004 9.515 7.714 17.229 17.229 17.23 9.515-0.001 17.228-7.715 17.228-17.23s-7.713-17.228-17.228-17.229zm-1.524 0.9824c0.434-0.0029 0.849 0.3896 0.545 0.8926-0.447 0.7901-1.14 1.43-1.396 2.451-0.301 1.173 1.459 1.042 3.24 1.362 5.678 1.031 3.029 3.963 1.795 4.005-2.598 0.421-5.88-0.332-6.338 5.137 0.024 1.429 0.578 2.723 0.897 4.076 0.166 1.287-0.019 2.56-0.766 3.805 0.371-0.048 0.708-0.072 1.18-0.19 1.437-0.46 2.005-0.844 1.584-1.654-1.506-1.763-0.407-3.854 0.404-4.748 1.424-1.473 2.159-2.325 3.557-2.781 1.656-0.487 3.082 0.916 2.24 2.111-1.622 1.923-3.773 2.854-2.445 4.324 0.545 0.363 0.737 0.486 1.15 0.922 1.056 1.613 1.122 2.131 1.607 3.555 0.01 1.027 0.55 2.173-2.367 3.787-3.043 0.951-5.301 2.696-9.207 2.787-3.863-0.337-6.809-3.262-5.933-5.935l1.07-3.108c0.789-2.136-0.034-2.805-1.555-2.836l-2.1932-0.058c-1.7908-0.039-2.4568-3.126-0.375-3.907 1.9752-0.656 4.1622-0.191 6.6292 0.321 1.23 0.218 2.442 1.063 2.937 2.842 0.504 1.832 0.247 2.903 0.186 4.169 0.066 0.297 0.331 0.425 0.689 0.467 0.704-1.467 1.053-2.821 0.842-3.996-0.639-1.793-1.006-3.205-0.937-4 0.533-5.432 3.248-5.498 5.888-5.746 3.182-0.287 2.067-2.215-1.029-2.328-1.073 0.004-4.511-0.166-4.086-2.17 0.334-1.3904 1.095-2.0803 1.537-3.0624 0.122-0.3486 0.39-0.4924 0.65-0.4942zm12.479 13.879c1.259-0.001 2.515 0.474 3.475 1.434 1.922 1.919 1.927 5.039 0.007 6.961-1.919 1.924-5.038 1.929-6.959 0.01-1.922-1.92-1.919-5.038 0-6.959 0.96-0.962 2.218-1.444 3.477-1.444v-0.002z" fill-rule="evenodd" transform="scale(.26458)" fill="#333"/>
</svg>
